/* XPM */
static char *blinky[] = {
"20 20 5 1",
"  c None",
"r c #ff0000",
"g c #00ff00",
"b c #0000ff",
"w c #ffffff",
"rrrrrrrrrrgggggggggg",
"rrrrrrrrrrgggggggggg",
"rrrrrrrrrrgggggggggg",
"rrrrrrrrrrgggggggggg",
"rrrrrrrrrrgggggggggg",
"rrrrrrrrrrgggggggggg",
"rrrrrrrrrrgggggggggg",
"rrrrrrrrrrgggggggggg",
"rrrrrrrrrrgggggggggg",
"rrrrrrrrrrgggggggggg",
"bbbbbbbbbbwwwwwwwwww",
"bbbbbbbbbbwwwwwwwwww",
"bbbbbbbbbbwwwwwwwwww",
"bbbbbbbbbbwwwwwwwwww",
"bbbbbbbbbbwwwwwwwwww",
"bbbbbbbbbbwwwwwwwwww",
"bbbbbbbbbbwwwwwwwwww",
"bbbbbbbbbbwwwwwwwwww",
"bbbbbbbbbbwwwwwwwwww",
"bbbbbbbbbbwwwwwwwwww",
};
